images/Ecosystem/kraken.svg

<svg xmlns="http://www.w3.org/2000/svg" fill="none" viewBox="0 0 46 46" height="46" width="46">
<rect fill="#7132F5" rx="23" height="46" width="46"></rect>
<path fill="white" d="M22.9972 12.6995C16.9234 12.6995 12 17.6875 12 23.8404V28.6146C12 29.4929 12.7026 30.2043 13.5699 30.2043C14.4373 30.2043 15.145 29.4929 15.145 28.6146V23.8404C15.145 22.9595 15.845 22.2481 16.7149 22.2481C17.5823 22.2481 18.2849 22.9595 18.2849 23.8404V28.6146C18.2849 29.4929 18.9875 30.2043 19.8548 30.2043C20.7247 30.2043 21.4273 29.4929 21.4273 28.6146V23.8404C21.4273 22.9595 22.1299 22.2481 22.9972 22.2481C23.8671 22.2481 24.5723 22.9595 24.5723 23.8404V28.6146C24.5723 29.4929 25.2749 30.2043 26.1422 30.2043C27.0096 30.2043 27.7122 29.4929 27.7122 28.6146V23.8404C27.7122 22.9595 28.4148 22.2481 29.2872 22.2481C30.1546 22.2481 30.8572 22.9595 30.8572 23.8404V28.6146C30.8572 29.4929 31.5598 30.2043 32.4297 30.2043C33.297 30.2043 33.9996 29.4929 33.9996 28.6146V23.8404C33.9996 17.6875 29.0736 12.6995 22.9972 12.6995Z"></path>
</svg>

<svg xmlns="http://www.w3.org/2000/svg" fill="none" height="46" width="46" xmlns:v="https://vecta.io/nano"><rect fill="#7132f5" rx="23" height="46" width="46"/><path fill="#fff" d="M22.997 12.7C16.923 12.7 12 17.688 12 23.84v4.774a1.58 1.58 0 0 0 1.57 1.59c.867 0 1.575-.711 1.575-1.59V23.84c0-.881.7-1.592 1.57-1.592a1.58 1.58 0 0 1 1.57 1.592v4.774a1.58 1.58 0 0 0 1.57 1.59 1.58 1.58 0 0 0 1.572-1.59V23.84a1.58 1.58 0 0 1 1.57-1.592c.87 0 1.575.711 1.575 1.592v4.774a1.58 1.58 0 0 0 1.57 1.59 1.58 1.58 0 0 0 1.57-1.59V23.84c0-.881.703-1.592 1.575-1.592a1.58 1.58 0 0 1 1.57 1.592v4.774a1.58 1.58 0 0 0 1.572 1.59 1.58 1.58 0 0 0 1.57-1.59V23.84C34 17.688 29.074 12.7 22.997 12.7z"/></svg>
